images/logo-htmlacademy.svg

<svg width="115" height="34" fill="none" xmlns="http://www.w3.org/2000/svg"><path d="M0 13.9v2.6h2.5v-2.6H0Z" fill="black"/><path d="M11.6 5.5c-1.6 0-2.8.7-3.6 1.7h-.1V1h-2v15.5h2v-5.3c0-2.1 1.3-3.6 3.3-3.6 1.8 0 2.9 1.4 2.9 3.2v5.7h2v-6.1c.1-3-1.8-4.9-4.5-4.9Z" fill="black"/><path d="M26.6 5.8h-4.8V2.1h-2v3.8h-1.9v2h1.9v6c0 1.7 1 2.7 2.7 2.7h4.1v-2h-3.7c-.7 0-1.1-.4-1.1-1.1V7.8h4.8v-2Z" fill="black"/><path d="M41.1 5.6c-1.6 0-2.9.8-3.5 2.1h-.1c-.6-1.2-1.8-2.1-3.4-2.1-1.4 0-2.5.8-3.1 1.8h-.1V5.8H29v10.6h2V11c0-2 1-3.5 2.6-3.5 1.5 0 2.4 1 2.4 2.6v6.3h2v-5.6c0-2.4 1.4-3.3 2.6-3.3 1.5 0 2.4 1 2.4 2.6v6.3h2V9.9c.1-2.5-1.4-4.3-3.9-4.3Z" fill="black"/><path d="M47.8 13.7c0 1.7 1 2.7 2.8 2.7h2v-2h-1.7c-.7 0-1.1-.4-1.1-1.1V1h-2v12.7Z" fill="black"/><path d="M28.9 20.7c-.9-1.1-2.2-1.8-3.9-1.8-3.1 0-5.4 2.3-5.4 5.6s2.3 5.6 5.4 5.6c1.8 0 3-.8 3.8-1.9h.1v1.6h2V19.2h-2v1.5Zm-3.6 7.4c-2.2 0-3.6-1.6-3.6-3.6s1.4-3.6 3.6-3.6 3.6 1.6 3.6 3.6c0 1.9-1.4 3.6-3.6 3.6Z" fill="black"/><path d="M44.2 23c-.5-2.4-2.6-4.1-5.4-4.1a5.4 5.4 0 0 0-5.6 5.6c0 3.1 2.2 5.6 5.6 5.6 2.8 0 4.9-1.8 5.4-4.2h-2.1a3.4 3.4 0 0 1-3.3 2.3c-2.2 0-3.6-1.6-3.6-3.6s1.4-3.6 3.6-3.6c1.6 0 2.8 1 3.3 2.2h2.1V23Z" fill="black"/><path d="M55.1 20.7c-.9-1.1-2.2-1.8-3.9-1.8-3.1 0-5.4 2.3-5.4 5.6s2.3 5.6 5.4 5.6c1.8 0 3-.8 3.8-1.9h.1v1.6h2V19.2h-2v1.5Zm-3.6 7.4c-2.2 0-3.6-1.6-3.6-3.6s1.4-3.6 3.6-3.6 3.6 1.6 3.6 3.6c0 1.9-1.5 3.6-3.6 3.6Z" fill="black"/><path d="M68.7 20.8c-.9-1.1-2.2-1.9-3.9-1.9-3.1 0-5.4 2.3-5.4 5.6s2.2 5.6 5.4 5.6c1.7 0 3-.8 3.8-1.8h.1v1.5h2V14.4h-2v6.4Zm-3.6 7.3c-2.2 0-3.6-1.6-3.6-3.6s1.4-3.6 3.6-3.6 3.6 1.6 3.6 3.6c-.1 2-1.5 3.6-3.6 3.6Z" fill="black"/><path d="M78.3 18.9c-3.3 0-5.5 2.5-5.5 5.6 0 3 2.1 5.6 5.5 5.6 2.5 0 4.5-1.3 5.2-3.6h-2.1c-.5 1-1.6 1.6-3 1.6-1.9 0-3.3-1.3-3.4-2.9h8.8c.2-3.6-2-6.3-5.5-6.3Zm0 1.9c1.7 0 3 1 3.3 2.6h-6.5c.3-1.5 1.5-2.6 3.2-2.6Z" fill="black"/><path d="M98.2 18.9c-1.6 0-2.9.8-3.6 2h-.1c-.6-1.2-1.8-2-3.4-2-1.4 0-2.5.7-3.1 1.8v-1.5h-1.9v10.6h2v-5.4c0-2 1-3.4 2.6-3.5 1.5 0 2.4 1 2.4 2.6v6.3h2v-5.6c0-2.4 1.4-3.3 2.6-3.3 1.5 0 2.4 1 2.4 2.6v6.3h2v-6.5c.1-2.6-1.4-4.4-3.9-4.4Z" fill="black"/><path d="m109.4 28-3.6-8.9h-2.2l4.8 11.6c-.3.9-.7 1.2-1.7 1.2h-2.5v2h2.5c1.8 0 2.8-.8 3.5-2.6l4.7-12.2h-2.1l-3.4 8.9Z" fill="black"/></svg>

<svg width="115" height="34" viewBox="0 0 115 34" fill="none" xmlns="http://www.w3.org/2000/svg">
<path d="M0 13.9V16.5H2.5V13.9H0Z" fill="black"/>
<path d="M11.6 5.5C10 5.5 8.8 6.2 8 7.2H7.9V1H5.9V16.5H7.9V11.2C7.9 9.1 9.2 7.6 11.2 7.6C13 7.6 14.1 9 14.1 10.8V16.5H16.1V10.4C16.2 7.4 14.3 5.5 11.6 5.5Z" fill="black"/>
<path d="M26.6 5.8H21.8V2.1H19.8V5.9H17.9V7.9H19.8V13.9C19.8 15.6 20.8 16.6 22.5 16.6H26.6V14.6H22.9C22.2 14.6 21.8 14.2 21.8 13.5V7.8H26.6V5.8Z" fill="black"/>
<path d="M41.1 5.6C39.5 5.6 38.2 6.4 37.6 7.7H37.5C36.9 6.5 35.7 5.6 34.1 5.6C32.7 5.6 31.6 6.4 31 7.4H30.9V5.8H29V16.4H31V11C31 9 32 7.5 33.6 7.5C35.1 7.5 36 8.5 36 10.1V16.4H38V10.8C38 8.4 39.4 7.5 40.6 7.5C42.1 7.5 43 8.5 43 10.1V16.4H45V9.9C45.1 7.4 43.6 5.6 41.1 5.6Z" fill="black"/>
<path d="M47.8 13.7C47.8 15.4 48.8 16.4 50.6 16.4H52.6V14.4H50.9C50.2 14.4 49.8 14 49.8 13.3V1H47.8V13.7Z" fill="black"/>
<path d="M28.9 20.7C28 19.6 26.7 18.9 25 18.9C21.9 18.9 19.6 21.2 19.6 24.5C19.6 27.8 21.9 30.1 25 30.1C26.8 30.1 28 29.3 28.8 28.2H28.9V29.8H30.9V19.2H28.9V20.7ZM25.3 28.1C23.1 28.1 21.7 26.5 21.7 24.5C21.7 22.5 23.1 20.9 25.3 20.9C27.5 20.9 28.9 22.5 28.9 24.5C28.9 26.4 27.5 28.1 25.3 28.1Z" fill="black"/>
<path d="M44.2 23C43.7 20.6 41.6 18.9 38.8 18.9C35.4 18.9 33.2 21.4 33.2 24.5C33.2 27.6 35.4 30.1 38.8 30.1C41.6 30.1 43.7 28.3 44.2 25.9H42.1C41.7 27.2 40.4 28.2 38.8 28.2C36.6 28.2 35.2 26.6 35.2 24.6C35.2 22.6 36.6 21 38.8 21C40.4 21 41.6 22 42.1 23.2H44.2V23Z" fill="black"/>
<path d="M55.1 20.7C54.2 19.6 52.9 18.9 51.2 18.9C48.1 18.9 45.8 21.2 45.8 24.5C45.8 27.8 48.1 30.1 51.2 30.1C53 30.1 54.2 29.3 55 28.2H55.1V29.8H57.1V19.2H55.1V20.7ZM51.5 28.1C49.3 28.1 47.9 26.5 47.9 24.5C47.9 22.5 49.3 20.9 51.5 20.9C53.7 20.9 55.1 22.5 55.1 24.5C55.1 26.4 53.6 28.1 51.5 28.1Z" fill="black"/>
<path d="M68.7 20.8C67.8 19.7 66.5 18.9 64.8 18.9C61.7 18.9 59.4 21.2 59.4 24.5C59.4 27.8 61.6 30.1 64.8 30.1C66.5 30.1 67.8 29.3 68.6 28.3H68.7V29.8H70.7V14.4H68.7V20.8ZM65.1 28.1C62.9 28.1 61.5 26.5 61.5 24.5C61.5 22.5 62.9 20.9 65.1 20.9C67.3 20.9 68.7 22.5 68.7 24.5C68.6 26.5 67.2 28.1 65.1 28.1Z" fill="black"/>
<path d="M78.3 18.9C75 18.9 72.8 21.4 72.8 24.5C72.8 27.5 74.9 30.1 78.3 30.1C80.8 30.1 82.8 28.8 83.5 26.5H81.4C80.9 27.5 79.8 28.1 78.4 28.1C76.5 28.1 75.1 26.8 75 25.2H83.8C84 21.6 81.8 18.9 78.3 18.9ZM78.3 20.8C80 20.8 81.3 21.8 81.6 23.4H75.1C75.4 21.9 76.6 20.8 78.3 20.8Z" fill="black"/>
<path d="M98.2 18.9C96.6 18.9 95.3 19.7 94.6 20.9H94.5C93.9 19.7 92.7 18.9 91.1 18.9C89.7 18.9 88.6 19.6 88 20.7V19.2H86.1V29.8H88.1V24.4C88.1 22.4 89.1 21 90.7 20.9C92.2 20.9 93.1 21.9 93.1 23.5V29.8H95.1V24.2C95.1 21.8 96.5 20.9 97.7 20.9C99.2 20.9 100.1 21.9 100.1 23.5V29.8H102.1V23.3C102.2 20.7 100.7 18.9 98.2 18.9Z" fill="black"/>
<path d="M109.4 28L105.8 19.1H103.6L108.4 30.7C108.1 31.6 107.7 31.9 106.7 31.9H104.2V33.9H106.7C108.5 33.9 109.5 33.1 110.2 31.3L114.9 19.1H112.8L109.4 28Z" fill="black"/>
</svg>
